X: 112
T: Robert Deveaux Reel
T: Reel, D
C: Raymond Ellis
L: 1/16
M: C|
K: D
|: A2c2| d2f2e2c2 d4A2c2| d2A2B2G2 F2D2D2F2| E2B,2E2F2 G2A2B2d2| c4e2d2 c2A2B2c2| 
d2f2e2c2 d4A2c2| d2A2B2G2 F2D2D2F2| E2B,2E2F2 G2A2B2d2| c4e2c2 d4:| 
g4| f2e2f2g2 a4f2a2| g4e2g2 f2d2e2c2| B4G2B2 A2F2A2F2| E4e2d2 c2A2A2g2| 
f2e2f2g2 a4f2a2| g4e2g2 f2d2e2c2| B4G2B2 c4A2c2| d2f2e2g2 f2d2d2g2| 
f2e2f2g2 a4f2a2| g4e2g2 f2d2e2c2| B4G2B2 A2F2A2F2| E4e2d2 c2A2B2c2| 
d2f2e2c2 d4A2c2| d2A2B2G2 F2D2D2F2| E2B,2E2F2 G2A2B2d2| c4e2c2 d4|| 
D: Ray Ellis, More Like Me!, REC001, 1999
